svgs/thin/computer-mouse.svg

<svg xmlns="http://www.w3.org/2000/svg" viewBox="0 0 384 512"><!--! Font Awesome Pro 6.6.0 by @fontawesome - https://fontawesome.com License - https://fontawesome.com/license (Commercial License) Copyright 2024 Fonticons, Inc. --><path d="M16 192l168 0 0-176-24 0C80.5 16 16 80.5 16 160l0 32zM184 0l8 0 8 0 24 0c88.4 0 160 71.6 160 160l0 32 0 8 0 8 0 144c0 88.4-71.6 160-160 160l-64 0C71.6 512 0 440.4 0 352L0 208l0-8 0-8 0-32C0 71.6 71.6 0 160 0l24 0zM16 208l0 144c0 79.5 64.5 144 144 144l64 0c79.5 0 144-64.5 144-144l0-144-176 0L16 208zm352-16l0-32c0-79.5-64.5-144-144-144l-24 0 0 176 168 0z"/></svg>

<svg xmlns="http://www.w3.org/2000/svg" viewBox="0 0 384 512"><!--! Font Awesome Pro 6.4.2 by @fontawesome - https://fontawesome.com License - https://fontawesome.com/license (Commercial License) Copyright 2023 Fonticons, Inc. --><path d="M16 192H184V16H160C80.5 16 16 80.5 16 160v32zM184 0h8 8 24c88.4 0 160 71.6 160 160v32 8 8V352c0 88.4-71.6 160-160 160H160C71.6 512 0 440.4 0 352V208v-8-8V160C0 71.6 71.6 0 160 0h24zM16 208V352c0 79.5 64.5 144 144 144h64c79.5 0 144-64.5 144-144V208H192 16zm352-16V160c0-79.5-64.5-144-144-144H200V192H368z"/></svg>
